X: 84
T: Ibo mihi ad montem Mirrhe
C: Gaspar van Weerbeke
%%abc-version 2.0
%%abcx-abcm2ps-target-version 5.9.1 (29 Sep 2008)
%%abc-creator hum2abc beta
%%abcx-conversion-date 2022/03/06 13:05:57
%%abc-copyright Copyright 2008, Pavanello, Agnese
%%abc-edited-by Mair-Gruber, Roland
%%humdrum-veritas 2191462078
%%humdrum-veritas-data 3084723343
%%linebreak <none>
%%barnumbers 0
L: 1/4
M: 3/2
N: Derived from Gas0409-Ibo_mihi_ad_montem_Mirrhe.krn
%%staves [1 2 3 4]
V: 1 clef=treble
V: 2 clef=treble-8
V: 3 clef=treble-8
V: 4 clef=bass
K: C
[V:1] A2A>GEF | 
[V:2] A2c>BGA | 
[V:3] z6 | 
[V:4] z6 | 
[V:1] G2A2c3/B/ | 
[V:2] B2Ac>de- | 
[V:3] z2A2A3/G/ | 
[V:4] z6 | 
[V:1] GAB2AE- | 
[V:2] ed/c/Bec3/B/ | 
[V:3] EFG2A2 | 
[V:4] z2E,2A,,C,- | 
[V:1] E/F/G/A/ B/c/A2^G | 
[V:2] Gge/c/de2 | 
[V:3] c>BGAB2 | 
[V:4] C,/D,/E,2F,E,2 | 
[V:1] A2z2z2 | 
[V:2] z6 | 
[V:3] AE>FG/A/ B/c/A- | 
[V:4] A,,C,>D,E,2D,/C,/ | 
[V:1] z6 | 
[V:2] z2c>dee | 
[V:3] A^GA2c2 | 
[V:4] B,,2A,,4 | 
[V:1] z2c2B2 | 
[V:2] d>cA2e2- | 
[V:3] B2c3/B//A//GE- | 
[V:4] z2z2E,2 | 
[V:1] c>BGE2F | 
[V:2] edeBcd | 
[V:3] EFEG2A | 
[V:4] G,A,B,2E,D, | 
[V:1] EG2AGE- | 
[V:2] Bc2dBc | 
[V:3] GE2FGA | 
[V:4] E,C,E,D,E,C, | 
[V:1] E/C/DE2z2 | 
[V:2] A2A2cc | 
[V:3] F2E2EE | 
[V:4] D,2A,,2A,,A,, | 
[V:1] z2z2EE | 
[V:2] ccc2c2 | 
[V:3] FEA>GE2 | 
[V:4] A,,A,,A,,2A,,2 | 
[V:1] FEA>GE2 | 
[V:2] c2ccc2 | 
[V:3] zEFEA3/G/ | 
[V:4] A,,2A,,A,,A,,2 | 
[V:1] zEFEA3/G/ | 
[V:2] c2FGA2 | 
[V:3] E2zccc | 
[V:4] A,,C,D,C,F,3/E,/ | 
[V:1] E2z2G2 | 
[V:2] G2g2gg | 
[V:3] c>BG2z2 | 
[V:4] C,4C,2 | 
[V:1] GGE>CCG | 
[V:2] e>cc2ge | 
[V:3] c2ce>dc/B/ | 
[V:4] C,C,C,2C,2 | 
[V:1] FG2F/E/D2 | 
[V:2] dBcG3 | 
[V:3] AG2c2B | 
[V:4] D,E,C,2G,,2 | 
[V:1] C4z2 | 
[V:2] G2g2ee | 
[V:3] c2z2c2 | 
[V:4] C,6 | 
[V:1] z2z2c2 | 
[V:2] g>ef3f | 
[V:3] Bcd>cAA | 
[V:4] E,2D,2z2 | 
[V:1] Bcd>cAA | 
[V:2] g>fd2zA | 
[V:3] G2zGcd | 
[V:4] z2z2F,2 | 
[V:1] G2c2B3/A/ | 
[V:2] BcG>A B/c/d | 
[V:3] e4d2 | 
[V:4] E,C,>D,E,/F,/G,2 | 
[V:1] G/F/E2A2^G | 
[V:2] Gc>de3 | 
[V:3] ecA>cB2 | 
[V:4] E,A,2A,,E,2 | 
[V:1] A2z2G2 | 
[V:2] c>ABBcB | 
[V:3] A2z2zB | 
[V:4] F,2E,2E,2 | 
[V:1] GG2<G2G | 
[V:2] e>dBBe2 | 
[V:3] cBe3/d//c//BB | 
[V:4] E,E,E,2E,E, | 
[V:1] A2z2G3/G/ | 
[V:2] zc>ccGc- | 
[V:3] A2e2ee- | 
[V:4] F,3C,2C, | 
[V:1] GBcBcB/A/ | 
[V:2] cBAeAc | 
[V:3] eee2e2 | 
[V:4] C,G,A,G,A,3/G,/ | 
[V:1] G2zBcB | 
[V:2] B>A G/F/Eeg | 
[V:3] z2e2cd | 
[V:4] E,2>G,2A,G, | 
[V:1] cB/A<^G^F/A2 | 
[V:2] cde2c2 | 
[V:3] A2B2A2 | 
[V:4] F,2E,2A,,2 | 
[V:1] A>BcdBG | 
[V:2] c>defge- | 
[V:3] z6 | 
[V:4] A,2E,D,G,2 | 
[V:1] A>FG2GA | 
[V:2] e/c/d2<e2f | 
[V:3] AAB2c3/d/ | 
[V:4] F,2E,2C,F, | 
[V:1] Gc2Bc2 | 
[V:2] g/e/fg2e2- | 
[V:3] ecd2c2 | 
[V:4] E,A,G,2C,2 | 
[V:1] z2c2Bd- | 
[V:2] e2g2g3/f/ | 
[V:3] c2e2d2 | 
[V:4] z2C,2G,2 | 
[V:1] d/c/BAG2c | 
[V:2] dGABc2 | 
[V:3] d2de2e | 
[V:4] G,2F,E,C,2 | 
[V:1] BAG>FE3/F/ | 
[V:2] zdBcGA | 
[V:3] dfe>d c/B/c | 
[V:4] G,D,E,C,2A,, | 
[V:1] GA2^GA2 |]  
[V:2] Ede2e2 |]  
[V:3] BAB2A2 |]  
[V:4] E,F,E,2A,,2 |]  


